assets/img/seaSand.svg

<?xml version="1.0" encoding="utf-8"?>
<!-- Generator: Adobe Illustrator 16.0.0, SVG Export Plug-In . SVG Version: 6.00 Build 0)  -->
<!DOCTYPE svg PUBLIC "-//W3C//DTD SVG 1.1//EN" "http://www.w3.org/Graphics/SVG/1.1/DTD/svg11.dtd">
<svg version="1.1" id="Layer_1" xmlns="http://www.w3.org/2000/svg" xmlns:xlink="http://www.w3.org/1999/xlink" x="0px" y="0px"
	 width="1920px" height="1086px" viewBox="0 0 1920 1086" enable-background="new 0 0 1920 1086" xml:space="preserve">
<g>
	<defs>
		<rect id="SVGID_1_" width="1920" height="1086"/>
	</defs>
	<clipPath id="SVGID_2_">
		<use xlink:href="#SVGID_1_"  overflow="visible"/>
	</clipPath>
	<path clip-path="url(#SVGID_2_)" fill="#7575BF" d="M251,672c-141,0-182,11.5-251,18v417h1920V656c-69.84,0-528.52,2.674-749,0.001
		C1006,654,937.089,697.235,619,724.5C482.082,736.236,344.776,672,251,672z"/>
	<linearGradient id="SVGID_3_" gradientUnits="userSpaceOnUse" x1="959.9995" y1="705.5" x2="959.9995" y2="1041.5">
		<stop  offset="0" style="stop-color:#9797FF"/>
		<stop  offset="1" style="stop-color:#3B35B7"/>
	</linearGradient>
	<path clip-path="url(#SVGID_2_)" fill="url(#SVGID_3_)" d="M369.228,677.51c-93.502-22.759-285.111-9.482-369.228,0V1086h725h692
		h503v-64.07c-0.12-16.489-41.01-37.434-46.5-40.43c-0.939-0.512-32.5-17.181-48-18.5c-32.57-2.772-36,0-53,2
		c-24.04,2.828-34,7.857-69,0c-24.5-5.5-72.61-32.587-92-64.5c-47.2-77.667-85-95-146.47-92
		c-36.841,1.798-74.931-12.824-81.091-17.533c-15.01-11.467-34.14-16.809-43.26-17.827c-14.68-1.64-23.91-3.414-23.91-3.414
		s-23.85-4.39-35.289-9.861c-17.48-8.364-20.11-9.104-28.461-24.277c-3.959-7.207-17.069-23.517-56.92-23.517
		c-107.39,0-204.116,8.43-245.1,8.43c-40.5,0-41.94-8.689-25.5-12c72-14.5,141-51.146,91.5-40.5
		c-78.5,16.882-228.311,16.643-310.041,9.51C598,668,486.106,705.958,369.228,677.51z"/>
</g>
</svg>

<svg width="1920" height="1086" viewBox="0 0 1920 1086" fill="none" xmlns="http://www.w3.org/2000/svg">
<g clip-path="url(#clip0_349_97)">
<path d="M251 672C110 672 69 683.5 0 690V1107H1920V656C1850.16 656 1391.48 658.674 1171 656.001C1006 654 937.089 697.235 619 724.5C482.082 736.236 344.776 672 251 672Z" fill="#D1B2B2"/>
<path d="M369.228 677.51C275.725 654.751 84.1166 668.027 0 677.51V1086H725H1417H1920V1021.93C1919.88 1005.44 1878.99 984.496 1873.5 981.5C1872.56 980.988 1841 964.319 1825.5 963C1792.93 960.228 1789.5 963 1772.5 965C1748.46 967.828 1738.5 972.857 1703.5 965C1679 959.5 1630.89 932.413 1611.5 900.5C1564.3 822.833 1526.5 805.5 1465.03 808.5C1428.19 810.298 1390.1 795.676 1383.94 790.967C1368.93 779.5 1349.8 774.158 1340.68 773.14C1326 771.5 1316.77 769.726 1316.77 769.726C1316.77 769.726 1292.92 765.336 1281.48 759.864C1264 751.5 1261.37 750.76 1253.02 735.587C1249.06 728.38 1235.95 712.07 1196.1 712.07C1088.71 712.07 991.983 720.5 951 720.5C910.5 720.5 909.06 711.811 925.5 708.5C997.5 694 1066.5 657.355 1017 668C938.5 684.882 788.689 684.643 706.959 677.51C598 668 486.106 705.958 369.228 677.51Z" fill="url(#paint0_linear_349_97)"/>
</g>
<defs>
<linearGradient id="paint0_linear_349_97" x1="1012" y1="421" x2="1012" y2="1075.5" gradientUnits="userSpaceOnUse">
<stop stop-color="#131549"/>
<stop offset="1" stop-color="#8277AB"/>
</linearGradient>
<clipPath id="clip0_349_97">
<rect width="1920" height="1086" fill="white"/>
</clipPath>
</defs>
</svg>
